Newaita/actions/32/media-repeat-track-amarok.svg

<svg height="32" viewBox="0 0 32 32" width="32" xmlns="http://www.w3.org/2000/svg"><g fill="#424242"><path d="m8.601562 29.355469-4.632812-6.613281h3.308594v-19.183594c0-.367188.292968-.664063.660156-.664063h1.324219c.367187 0 .660156.296875.660156.664063v19.183594h3.308594zm0 0"/><path d="m23.152344 2.894531-4.628906 6.617188h3.308593v19.183593c0 .367188.292969.660157.660157.660157h1.324218c.363282 0 .660156-.292969.660156-.660157v-19.183593h3.308594zm0 0"/><path d="m13.230469 13.480469c-.367188 0-.660157.296875-.660157.660156 0 .367187.292969.664063.660157.664063h1.324219v4.628906c0 .367187.292968.660156.660156.660156h1.324218c.367188 0 .660157-.292969.660157-.660156v-5.292969c0-.078125-.015625-.15625-.039063-.226563-.007812-.019531-.015625-.039062-.027344-.058593-.03125-.066407-.074218-.128907-.125-.183594-.015624-.011719-.03125-.027344-.046874-.039063-.082032-.070312-.179688-.117187-.289063-.140624-.042969-.007813-.089844-.011719-.132813-.011719zm0 0"/></g></svg>

<?xml version="1.0" encoding="UTF-8"?>
<svg xmlns="http://www.w3.org/2000/svg" xmlns:xlink="http://www.w3.org/1999/xlink" width="32px" height="32px" viewBox="0 0 32 32" version="1.1">
<g id="surface1">
<path style=" stroke:none;fill-rule:nonzero;fill:rgb(25.882354%,25.882354%,25.882354%);fill-opacity:1;" d="M 8.601562 29.355469 L 3.96875 22.742188 L 7.277344 22.742188 L 7.277344 3.558594 C 7.277344 3.191406 7.570312 2.894531 7.9375 2.894531 L 9.261719 2.894531 C 9.628906 2.894531 9.921875 3.191406 9.921875 3.558594 L 9.921875 22.742188 L 13.230469 22.742188 Z M 8.601562 29.355469 "/>
<path style=" stroke:none;fill-rule:nonzero;fill:rgb(25.882354%,25.882354%,25.882354%);fill-opacity:1;" d="M 23.152344 2.894531 L 18.523438 9.511719 L 21.832031 9.511719 L 21.832031 28.695312 C 21.832031 29.0625 22.125 29.355469 22.492188 29.355469 L 23.816406 29.355469 C 24.179688 29.355469 24.476562 29.0625 24.476562 28.695312 L 24.476562 9.511719 L 27.785156 9.511719 Z M 23.152344 2.894531 "/>
<path style=" stroke:none;fill-rule:nonzero;fill:rgb(25.882354%,25.882354%,25.882354%);fill-opacity:1;" d="M 13.230469 13.480469 C 12.863281 13.480469 12.570312 13.777344 12.570312 14.140625 C 12.570312 14.507812 12.863281 14.804688 13.230469 14.804688 L 14.554688 14.804688 L 14.554688 19.433594 C 14.554688 19.800781 14.847656 20.09375 15.214844 20.09375 L 16.539062 20.09375 C 16.90625 20.09375 17.199219 19.800781 17.199219 19.433594 L 17.199219 14.140625 C 17.199219 14.0625 17.183594 13.984375 17.160156 13.914062 C 17.152344 13.894531 17.144531 13.875 17.132812 13.855469 C 17.101562 13.789062 17.058594 13.726562 17.007812 13.671875 C 16.992188 13.660156 16.976562 13.644531 16.960938 13.632812 C 16.878906 13.5625 16.78125 13.515625 16.671875 13.492188 C 16.628906 13.484375 16.582031 13.480469 16.539062 13.480469 Z M 13.230469 13.480469 "/>
</g>
</svg>
